!!!OTL: BACKE BACKE KUCHEN
!!!ARE: Europa, Mitteleuropa, Deutschland, Sachsen; Thueringen
!!!SCT: E1830
!!!YEM: Copyright 1995, estate of Helmut Schaffrath.
**kern
*ICvox
*Ivox
*M2/4
*k[b-]
*F:
=1
{8cc
8cc
8dd
8dd
=2
4cc
8a}
{8a
=3
8cc
8cc
8dd
8dd
=4
4cc
8a
8r}
=5
{8cc
8cc
8dd
8dd
=6
8cc
8cc
8a
8a}
=7
{8cc
8cc
8dd
8dd
=8
8cc
8cc
8a
8a}
=9
{16cc
16cc
8cc
4a
=10
16cc
16cc
8cc
4a}
=11
{8cc
8cc
4a
=12
8cc
8cc
8dd
8dd
=13
8cc
8cc
4a}
=14
{4ff
8cc
8a
=15
8g
8f
4f}
==
!!!AGN: Kinder - Lied
!!!ONB: ESAC (Essen Associative Code) Database: ERK3
!!!AMT: simple duple
!!!AIN: vox
!!!EED: Helmut Schaffrath
!!!EEV: 1.0
*-
